Numix-GalliumOS/32/actions/tag-new.svg

<svg xmlns="http://www.w3.org/2000/svg" viewBox="0 0 32 32">
 <path d="m 15 3.25 -13.75 14.807 12.693 12.693 14.807 -14.807 l 0 -12.693 -13.75 0 z m 6.875 3.929 a 2.946 2.946 0 0 1 2.946 2.946 2.946 2.946 0 0 1 -2.946 2.946 2.946 2.946 0 0 1 -2.946 -2.946 2.946 2.946 0 0 1 2.946 -2.946 z" style="stroke-dasharray:none;stroke-opacity:1;fill:#e6e1a2;opacity:1;stroke-miterlimit:4;fill-opacity:1;stroke:#a3a093;stroke-linecap:round;stroke-linejoin:round;stroke-width:0.5"/>
 <path d="m 32 20 l -6 0 l 0 -6 l -6 0 l 0 6 l -6 0 l 0 6 l 6 0 l 0 6 l 6 0 l 0 -6 l 6 0 Z" style="fill:#859900"/>
</svg>

<?xml version="1.0" encoding="UTF-8" standalone="no"?>
<svg
   xmlns:dc="http://purl.org/dc/elements/1.1/"
   xmlns:cc="http://creativecommons.org/ns#"
   xmlns:rdf="http://www.w3.org/1999/02/22-rdf-syntax-ns#"
   xmlns:svg="http://www.w3.org/2000/svg"
   xmlns="http://www.w3.org/2000/svg"
   xmlns:sodipodi="http://sodipodi.sourceforge.net/DTD/sodipodi-0.dtd"
   xmlns:inkscape="http://www.inkscape.org/namespaces/inkscape"
   width="32"
   height="32"
   viewBox="0 0 32 32"
   id="svg2"
   version="1.1"
   inkscape:version="0.91 r13725"
   sodipodi:docname="tag-new2d.svg">
  <metadata
     id="metadata12">
    <rdf:RDF>
      <cc:Work
         rdf:about="">
        <dc:format>image/svg+xml</dc:format>
        <dc:type
           rdf:resource="http://purl.org/dc/dcmitype/StillImage" />
        <dc:title></dc:title>
      </cc:Work>
    </rdf:RDF>
  </metadata>
  <defs
     id="defs10" />
  <sodipodi:namedview
     pagecolor="#ffffff"
     bordercolor="#666666"
     borderopacity="1"
     objecttolerance="10"
     gridtolerance="10"
     guidetolerance="10"
     inkscape:pageopacity="0"
     inkscape:pageshadow="2"
     inkscape:window-width="1366"
     inkscape:window-height="704"
     id="namedview8"
     showgrid="true"
     inkscape:zoom="22.627417"
     inkscape:cx="15.56407"
     inkscape:cy="19.685345"
     inkscape:window-x="0"
     inkscape:window-y="27"
     inkscape:window-maximized="1"
     inkscape:current-layer="svg2">
    <inkscape:grid
       type="xygrid"
       id="grid4140" />
  </sodipodi:namedview>
  <path
     style="opacity:1;fill:#ffffff;fill-opacity:1;stroke:none;stroke-width:0.5;stroke-linecap:round;stroke-linejoin:round;stroke-miterlimit:4;stroke-dasharray:none;stroke-opacity:1"
     d="M 14 2 L 0 17.076172 L 12.923828 30 L 28 14.923828 L 28 2 L 14 2 z M 21 6 A 3 3 0 0 1 24 9 A 3 3 0 0 1 21 12 A 3 3 0 0 1 18 9 A 3 3 0 0 1 21 6 z "
     id="rect4170" />
  <path
     style="fill:#859900"
     d="M 32 20 L 26 20 L 26 14 L 20 14 L 20 20 L 14 20 L 14 26 L 20 26 L 20 32 L 26 32 L 26 26 L 32 26 Z "
     id="path6" />
</svg>
